X: 1
T: Erev Ba (A)
O: Israel
Z: John Chambers <jc@trillian.mit.edu>
M: 4/4
L: 1/8
K: A
[|"A"E2A2 G2Ac | "Bm"B8 | "E7"B2c2 dec2 | "A"c8 \
| "A"E2A2 G2Ac | "Bm"B8 | "E7"B2c2 dec2 | "C#7"c8 |
| "D"d2f2 a3a | gagf f4 | "Bm"B2d2 f3f | "E7"efed "C#7"[cc]BAG \
| "F#m"A4 F4 | "Bm"B4 "E7"BcA2 | "A"A4- "D"A4- | "A"A8 |]
